X:1
T:Toriad y Dydd
T:The Dawn
C:Welsh, sung by the faeries before ending their nightly revels
F:http://www.faeriemagazine.com/forum/topic.aspTOPIC_ID=38 2008-3-20
M:C
K:Bm
B2|B2 F2 F2 d2|d2 c2 z2 c2|B3 d c2 B2|^A4 z2 B2|
F3 G E3 F|D3 E C3 D|B,2 B2 B2 ^A2|B4 z2|]
